src/lib/packages/icons/src/assets/line/bookmark-times.svg

<svg width="24" height="24" viewBox="0 0 24 24" fill="none" xmlns="http://www.w3.org/2000/svg">
<path d="M16 2.25H8C5.582 2.25 4.25 3.582 4.25 6V21C4.25 21.268 4.39302 21.5149 4.62402 21.6479C4.74002 21.716 4.87 21.75 5 21.75C5.128 21.75 5.25707 21.717 5.37207 21.651L12 17.863L18.6279 21.65C18.8609 21.783 19.146 21.782 19.376 21.647C19.607 21.513 19.75 21.266 19.75 20.999V5.99902C19.75 3.58202 18.418 2.25 16 2.25ZM18.25 19.707L12.3721 16.349C12.1421 16.217 11.8579 16.217 11.6279 16.349L5.75 19.708V6C5.75 4.423 6.423 3.75 8 3.75H16C17.577 3.75 18.25 4.423 18.25 6V19.707ZM14.53 8.53003L13.0601 10L14.53 11.47C14.823 11.763 14.823 12.238 14.53 12.531C14.384 12.677 14.192 12.751 14 12.751C13.808 12.751 13.616 12.678 13.47 12.531L12 11.061L10.53 12.531C10.384 12.677 10.192 12.751 10 12.751C9.808 12.751 9.61597 12.678 9.46997 12.531C9.17697 12.238 9.17697 11.763 9.46997 11.47L10.9399 10L9.46997 8.53003C9.17697 8.23703 9.17697 7.76199 9.46997 7.46899C9.76297 7.17599 10.238 7.17599 10.531 7.46899L12.001 8.93896L13.4709 7.46899C13.7639 7.17599 14.239 7.17599 14.532 7.46899C14.825 7.76199 14.823 8.23703 14.53 8.53003Z" fill="currentColor"/>
</svg>

<svg xmlns="http://www.w3.org/2000/svg" width="24" height="24" fill="none"><path fill="currentColor" d="M16 2.25H8C5.582 2.25 4.25 3.582 4.25 6v15a.747.747 0 0 0 .75.75.749.749 0 0 0 .372-.099L12 17.863l6.628 3.787a.75.75 0 0 0 1.122-.651v-15c0-2.417-1.332-3.749-3.75-3.749Zm2.25 17.457-5.878-3.358a.749.749 0 0 0-.744 0L5.75 19.708V6c0-1.577.673-2.25 2.25-2.25h8c1.577 0 2.25.673 2.25 2.25v13.707ZM14.53 8.53 13.06 10l1.47 1.47a.75.75 0 0 1-1.06 1.061L12 11.061l-1.47 1.47a.748.748 0 0 1-1.06 0 .75.75 0 0 1 0-1.061L10.94 10 9.47 8.53a.75.75 0 0 1 1.061-1.061l1.47 1.47 1.47-1.47A.75.75 0 1 1 14.53 8.53Z"/></svg>
